X:1
T:He's a Pirate
T:He's a Pirate
%%score { 1 | 2 }
L:1/8
Q:1/4=187
M:12/8
K:F
V:1 bass nm="Klavier" snm="Klav."
V:2 bass 
V:1
"^Presto"!f! D,2 D, D,2 D, D,2 D, D,D,D, | D,2 D, D,2 D, D,2 D, D,D,D, | %2
 D,2 D, D,2 D, D,2 D, D,A,C | %3
[K:treble] [F,A,D] z [F,A,D] z [F,A,D][G,CE] [B,DF] z [B,DF] z [B,DF][B,DG] | %4
 [A,CE] z [A,CE] z [F,A,D][E,G,C] [E,G,C][F,A,D] z2 A,C | %5
 [F,B,D] z [F,B,D] z [F,B,D][G,CE] [A,CF] z [A,CF] z [A,CF][A,CG] | %6
 [G,CE] z [G,CE] z [F,A,D][E,G,C] [F,A,D] z2 z A,C | %7
 [F,A,D] z [F,A,D] z [A,D][A,DF] [B,DG] z [B,DG] z [DG][DA] | %8
 [DGB] z [DGB] z [DA][DG] [DA].D z2 [A,D][A,E] | [B,DF] z [B,DF] z [B,DG] z [DFA].D z2 DF | %10
 [G,^CE] z [G,CE] z [G,DF][G,=B,D] [G,CE] z2 z Ac | %11
 [FAd] z [FAd] z [FAd][Gce] [Bdf] z [Bdf] z [Bdf][Bdg] | %12
 [Ace] z [Ace] z [FAd][EGc] [EGc][FAd] z2 Ac | %13
 [FBd] z [FBd] z [FBd][Gce] [Acf] z [Acf] z [Acf][Acg] | %14
 [Gce] z [Gce] z [FAd][EGc] [FAd] z z z Ac | [FAd] z [FAd] z [Ad][Adf] [Bdg] z [Bdg] z [dg][da] | %16
 [dgb] z [dgb] z [da][dg] [da].d z z [Ad][Ae] | [Bdf] z [Bdf] z [Bdg] z [dfa].d z z df | %18
[M:3/4] [G^ce] z [Gce] z [Fd][Ec] | [Fd] z [Fd] z [Ge] z | [Af] z [Af][Af] [Bg] z | %21
[M:12/8] [Aa]3 z fd A3 z z2 | [Bb]3 z fd B3 z z2 | .D.A, z .[F,A,D] z z .[E,A,^C] z z z [^cg][cg] | %24
 [Adfa] z [Adfa] z [Adfa] z [Bgb][Afa] z z3 | [Gceg] z [Gceg] z [Gceg] z [Gceg][Acfa] z z3 | %26
 [Adfa] z [Adfa] z [Adfa] z [Bgb][Afa] z z3 | [GBdg] z [FBdf] z [EA^ce] z [DFAd] z z z!mp! DE | %28
 [A,F]3- [A,F]GA [B,G]2 [A,F]- [A,F] [G,E]2 | [A,F]2 [CG]- [CG] [CA]2 [CEG]3 z FG | %30
 [CFA]3- [CFA]GF [G,E]2 [A,F]- [A,F] [G,E]2 | [F,D]2 [F,D]- [F,D][G,E]C [F,D]3 z"_cresc." de | %32
 [Adf]3- [Adf]ef [ceg]2 [cf]- [cf] [ceg]2 | [cfa]2 [ceg]- [ceg] [Adf]2 [FBd]3 z de | %34
 [Adf]2 [Adg]- [Adg] [Ada]2 [dgb]2 d- d [Bdg]2 | %35
!f!!>(! [Adf]2 z g[Ge] z [FAd]2 z e[G^c]!>)!!mp! z |!f! [Adfa]3 z3 [Bdfb]3 z z2 | %37
 [Acfa] z [Acfa] z [Acfa] z [Acfa][Gceg] z z3 | [GBdg]3 z3 [FAdf]3 z3 | %39
 [G^ce] z [Adf] z [Gce] z [Ge][Fd] z def | [Adfa]3 def [Bdfb]3 def | %41
 [Acfa] z [Acfa] z [cfac'] z [Acfa][Gceg] z z3 | [GBdg]3 z3 [FAdf]3 z3 | %43
 [G^ce] z [Adf] z [Gce] z [FAd]3 z z2 | z12 | z12 | z12 |[K:bass] !///![A,,D,]12 |] %48
V:2
 z12 | z12 |!8vb(! [D,,,D,,]12!8vb)! | D,,3 D,,3 B,,,3 B,,,3 | %4
 A,,,3 A,,,3 D,,3!8vb(! [D,,,D,,]3!8vb)! | B,,,3 B,,,3 F,,3 F,,3 | %6
 C,,3 C,,3 D,,2 D,,!8vb(! [D,,,D,,]3!8vb)! | D,,3 D,,3 B,,,3 B,,,3 | %8
 G,,,3 G,,,3 D,,3!8vb(! [D,,,D,,]3!8vb)! | B,,,3 B,,,3 D,,3 D,,3 | A,,,3 A,,,3 A,,,A,,A,,, A,,3 | %11
 D,,3 D,,3 B,,,3 B,,,3 | A,,,3 A,,,3 D,,3!8vb(! [D,,,D,,]3!8vb)! | B,,,3 B,,,3 F,,3 F,,3 | %14
 C,,3 C,,3 D,,2 D,,!8vb(! [D,,,D,,]3!8vb)! | D,,3 D,,3 B,,,3 B,,,3 | %16
 G,,,3 G,,,3 D,,3!8vb(! [D,,,D,,]3!8vb)! | B,,,3 B,,,3 D,,3 D,,3 |[M:3/4] A,,2 A,,2 A,,2 | %19
 [D,A,] z [D,A,] z [^C,G,] z | [=C,A,] z [C,A,][C,A,] [B,,G,] z | %21
[M:12/8] [A,,F,]3 A,,3 A,,,3 A,,,A,,A,,, | G,,,3 G,,,3 G,,,3 G,,,G,,G,,, | %23
 .A,,,3 .A,,,3 .A,,,3 A,,,A,,A,,, | D,, z D,, z D,, z D,,3 D,,D,D,, | %25
 C,, z C,, z C,, z C,,D,, z D,,D,D,, | D,, z D,, z D,, z D,,3 D,,D,D,, | %27
 B,, z G,, z A,, z [D,,D,] z z [D,,D,]3 | [D,F,]3 [D,F,]3 [G,,F,]2 [C,E,]- [C,E,] [C,E,]2 | %29
 [F,,F,]2 [F,,F,]- [F,,F,] [F,,F,]2 [C,E,]2 [C,E,] [C,E,]3 | %30
 [F,,F,]3 [F,,F,]3 [A,,E,]2 [A,,F,]- [A,,F,] [A,,E,]2 | D,3 D,3 D,3 [D,A,][D,A,][D,A,] | %32
 [D,A,]3 [D,A,]3 [C,G,]3 [C,G,]3 | [F,C]2 [F,C]- [F,C] [A,,F,]2 [B,,F,]2 [B,,F,] [B,,F,]3 | %34
 [D,A,]3 [D,A,]3 [G,,D,G,]3 [G,,D,G,]3 | [A,,F,]3 [A,,F,]3 [A,,F,]3 A,,3 | %36
 D,,3 D,,D,D,, G,,3 G,,,G,,G,,, | C,, z F,,, z A,,, z C,,3 C,,C,C,, | %38
 G,,3 G,,,G,,G,,, A,,,3 A,,,A,,A,,, | A,, z [A,,,A,,] z [A,,,A,,] z D,,3 D,,D,D,, | %40
 [D,,D,]3 [D,,D,]3 [B,,,B,,]3 [B,,,B,,]3 | [F,,,F,,] z A,,, z D,, z C,,3 C,,C,C,, | %42
 G,,3 G,,,G,,G,,, A,,,3 A,,,A,,A,,, | %43
 [A,,,A,,] z [A,,,A,,] z [A,,,A,,] z!8vb(! [D,,,D,,]3 D,,,D,,D,,, | %44
 D,,,D,,D,,, D,,D,,,D,, D,,,D,,D,,, D,,D,,,D,, | D,,,D,,D,,, D,,D,,,D,, D,,,D,,D,,, D,,D,,,D,, | %46
 D,,,D,,D,,, D,,D,,,D,, D,,,D,,D,,, D,,D,,,D,, | !///![D,,,D,,]12!8vb)! |] %48

